X: 15
T: Birchard's Hornpipe
C: Mike Springer
M: C
R: hornpipe
K: D
 "D"DFAF "G"DGBG| "A"Acec "D"d2ef| "G"g3a "Gm"gfeg| "D"fedB "D7"A4|
    "G"B3A BcdB| "D"AGFG A2(3ABc| "D"d2fd "A"edce|1"D"dcde dBAF:|2"D"d3c defg||
|: "D"a3b agfa| "A"gfef g2ag| "D"f2df "G"gfed| "A"cdec A4|
"G"B3A BcdB| "D"AGFG A2(3ABc| "D"d2fd "A"edce|1"D"d2 dc defg :|2"D"dcde dBAF|]
